images/icons/roof-2.svg

<svg height="32pt" viewBox="0 0 32 32" width="32pt" xmlns="http://www.w3.org/2000/svg"><g fill="#fff"><path d="m30.707031 0h-29.414062c-.355469 0-.640625.285156-.640625.636719v25.824219c0 3.054687 2.488281 5.539062 5.542968 5.539062 2.125 0 3.972657-1.203125 4.902344-2.960938.929688 1.757813 2.777344 2.960938 4.902344 2.960938s3.972656-1.203125 4.902344-2.960938c.929687 1.757813 2.777344 2.960938 4.902344 2.960938 3.054687 0 5.542968-2.484375 5.542968-5.539062v-25.824219c0-.351563-.285156-.636719-.640625-.636719zm-20.246093 26.460938c0 2.351562-1.914063 4.265624-4.265626 4.265624-2.351562 0-4.265624-1.914062-4.265624-4.265624v-5.039063c1.015624 1.226563 2.550781 2.007813 4.265624 2.007813 1.710938 0 3.246094-.78125 4.265626-2.007813zm0-8.609376v.035157c0 2.355469-1.914063 4.265625-4.265626 4.265625-2.351562 0-4.265624-1.910156-4.265624-4.265625v-5.109375c1.015624 1.226562 2.550781 2.007812 4.265624 2.007812 1.710938 0 3.246094-.78125 4.265626-2.007812zm0-8.605468c0 2.351562-1.914063 4.265625-4.265626 4.265625-2.351562 0-4.265624-1.914063-4.265624-4.265625v-7.972656h8.53125zm9.804687 17.214844c0 2.351562-1.914063 4.265624-4.265625 4.265624s-4.265625-1.914062-4.265625-4.265624v-5.039063c1.015625 1.226563 2.550781 2.007813 4.265625 2.007813s3.25-.78125 4.265625-2.007813zm0-8.609376v.035157c0 2.355469-1.914063 4.265625-4.265625 4.265625s-4.265625-1.910156-4.265625-4.265625v-5.109375c1.015625 1.226562 2.550781 2.007812 4.265625 2.007812s3.25-.78125 4.265625-2.007812zm0-8.605468c0 2.351562-1.914063 4.265625-4.265625 4.265625s-4.265625-1.914063-4.265625-4.265625v-7.972656h8.53125zm9.804687 17.214844c0 2.351562-1.914062 4.265624-4.265624 4.265624-2.351563 0-4.265626-1.914062-4.265626-4.265624v-5.039063c1.019532 1.226563 2.554688 2.007813 4.265626 2.007813 1.714843 0 3.25-.78125 4.265624-2.007813zm0-8.609376v.035157c0 2.355469-1.914062 4.265625-4.265624 4.265625-2.351563 0-4.265626-1.910156-4.265626-4.265625v-5.109375c1.019532 1.226562 2.554688 2.007812 4.265626 2.007812 1.714843 0 3.25-.78125 4.265624-2.007812zm0-8.605468c0 2.351562-1.914062 4.265625-4.265624 4.265625-2.351563 0-4.265626-1.914063-4.265626-4.265625v-7.972656h8.53125zm0 0"/><path d="m28.875 1.980469c-.351562 0-.636719.285156-.636719.636719v2.933593c0 .351563.285157.636719.636719.636719s.640625-.285156.640625-.636719v-2.933593c0-.351563-.289063-.636719-.640625-.636719zm0 0"/><path d="m28.875 6.824219c-.351562 0-.636719.285156-.636719.636719v.636718c0 .351563.285157.636719.636719.636719s.640625-.285156.640625-.636719v-.636718c0-.351563-.289063-.636719-.640625-.636719zm0 0"/></g></svg>

<?xml version="1.0" encoding="UTF-8"?>
<svg xmlns="http://www.w3.org/2000/svg" xmlns:xlink="http://www.w3.org/1999/xlink" width="32pt" height="32pt" viewBox="0 0 32 32" version="1.1">
<g id="surface1">
<path style=" stroke:none;fill-rule:nonzero;fill:rgb(255,255,255);fill-opacity:1;" d="M 30.707031 0 L 1.292969 0 C 0.9375 0 0.652344 0.285156 0.652344 0.636719 L 0.652344 26.460938 C 0.652344 29.515625 3.140625 32 6.195312 32 C 8.320312 32 10.167969 30.796875 11.097656 29.039062 C 12.027344 30.796875 13.875 32 16 32 C 18.125 32 19.972656 30.796875 20.902344 29.039062 C 21.832031 30.796875 23.679688 32 25.804688 32 C 28.859375 32 31.347656 29.515625 31.347656 26.460938 L 31.347656 0.636719 C 31.347656 0.285156 31.0625 0 30.707031 0 Z M 10.460938 26.460938 C 10.460938 28.8125 8.546875 30.726562 6.195312 30.726562 C 3.84375 30.726562 1.929688 28.8125 1.929688 26.460938 L 1.929688 21.421875 C 2.945312 22.648438 4.480469 23.429688 6.195312 23.429688 C 7.90625 23.429688 9.441406 22.648438 10.460938 21.421875 Z M 10.460938 17.851562 L 10.460938 17.886719 C 10.460938 20.242188 8.546875 22.152344 6.195312 22.152344 C 3.84375 22.152344 1.929688 20.242188 1.929688 17.886719 L 1.929688 12.777344 C 2.945312 14.003906 4.480469 14.785156 6.195312 14.785156 C 7.90625 14.785156 9.441406 14.003906 10.460938 12.777344 Z M 10.460938 9.246094 C 10.460938 11.597656 8.546875 13.511719 6.195312 13.511719 C 3.84375 13.511719 1.929688 11.597656 1.929688 9.246094 L 1.929688 1.273438 L 10.460938 1.273438 Z M 20.265625 26.460938 C 20.265625 28.8125 18.351562 30.726562 16 30.726562 C 13.648438 30.726562 11.734375 28.8125 11.734375 26.460938 L 11.734375 21.421875 C 12.75 22.648438 14.285156 23.429688 16 23.429688 C 17.714844 23.429688 19.25 22.648438 20.265625 21.421875 Z M 20.265625 17.851562 L 20.265625 17.886719 C 20.265625 20.242188 18.351562 22.152344 16 22.152344 C 13.648438 22.152344 11.734375 20.242188 11.734375 17.886719 L 11.734375 12.777344 C 12.75 14.003906 14.285156 14.785156 16 14.785156 C 17.714844 14.785156 19.25 14.003906 20.265625 12.777344 Z M 20.265625 9.246094 C 20.265625 11.597656 18.351562 13.511719 16 13.511719 C 13.648438 13.511719 11.734375 11.597656 11.734375 9.246094 L 11.734375 1.273438 L 20.265625 1.273438 Z M 30.070312 26.460938 C 30.070312 28.8125 28.15625 30.726562 25.804688 30.726562 C 23.453125 30.726562 21.539062 28.8125 21.539062 26.460938 L 21.539062 21.421875 C 22.558594 22.648438 24.09375 23.429688 25.804688 23.429688 C 27.519531 23.429688 29.054688 22.648438 30.070312 21.421875 Z M 30.070312 17.851562 L 30.070312 17.886719 C 30.070312 20.242188 28.15625 22.152344 25.804688 22.152344 C 23.453125 22.152344 21.539062 20.242188 21.539062 17.886719 L 21.539062 12.777344 C 22.558594 14.003906 24.09375 14.785156 25.804688 14.785156 C 27.519531 14.785156 29.054688 14.003906 30.070312 12.777344 Z M 30.070312 9.246094 C 30.070312 11.597656 28.15625 13.511719 25.804688 13.511719 C 23.453125 13.511719 21.539062 11.597656 21.539062 9.246094 L 21.539062 1.273438 L 30.070312 1.273438 Z M 30.070312 9.246094 "/>
<path style=" stroke:none;fill-rule:nonzero;fill:rgb(255,255,255);fill-opacity:1;" d="M 28.875 1.980469 C 28.523438 1.980469 28.238281 2.265625 28.238281 2.617188 L 28.238281 5.550781 C 28.238281 5.902344 28.523438 6.1875 28.875 6.1875 C 29.226562 6.1875 29.515625 5.902344 29.515625 5.550781 L 29.515625 2.617188 C 29.515625 2.265625 29.226562 1.980469 28.875 1.980469 Z M 28.875 1.980469 "/>
<path style=" stroke:none;fill-rule:nonzero;fill:rgb(255,255,255);fill-opacity:1;" d="M 28.875 6.824219 C 28.523438 6.824219 28.238281 7.109375 28.238281 7.460938 L 28.238281 8.097656 C 28.238281 8.449219 28.523438 8.734375 28.875 8.734375 C 29.226562 8.734375 29.515625 8.449219 29.515625 8.097656 L 29.515625 7.460938 C 29.515625 7.109375 29.226562 6.824219 28.875 6.824219 Z M 28.875 6.824219 "/>
</g>
</svg>
